assets/svg/wallet_icon_wallet_searching.svg

<svg width="48" height="48" viewBox="0 0 48 48" fill="none" xmlns="http://www.w3.org/2000/svg">
<path d="M21.0602 4.83188H14.1705C13.6062 4.83188 13.1046 4.47094 12.9255 3.93469L12.1137 1.5H23.118L22.3062 3.93469C22.2188 4.19597 22.0514 4.42317 21.8279 4.58417C21.6043 4.74517 21.3357 4.83182 21.0602 4.83188ZM27.214 38.8612V42.3122C27.214 43.7184 26.074 44.8584 24.6677 44.8584H13.4121C12.5065 44.8584 11.7715 45.5934 11.7715 46.4991H24.6677C26.9805 46.4991 28.8546 44.6241 28.8546 42.3122V39.5128L27.214 38.8612Z" fill="#E1EAF8"/>
<path d="M24.6685 46.828H10.5638C8.07383 46.828 6.04883 44.8021 6.04883 42.313V37.0743C6.04883 36.8934 6.19602 36.7462 6.37695 36.7462C6.55789 36.7462 6.70508 36.8934 6.70508 37.0743V42.313C6.70508 44.4412 8.43664 46.1718 10.5638 46.1718H24.6685C26.7966 46.1718 28.5273 44.4402 28.5273 42.313V36.5137C28.5273 36.3327 28.6745 36.1855 28.8554 36.1855C29.0363 36.1855 29.1835 36.3327 29.1835 36.5137V42.313C29.1835 44.8021 27.1585 46.828 24.6685 46.828Z" fill="#9A9A9A"/>
<path d="M28.5273 5.68687V10.8144C28.5273 10.9953 28.6745 11.1425 28.8554 11.1425C29.0363 11.1425 29.1835 10.9953 29.1835 10.8144V5.68687C29.1835 3.19687 27.1576 1.17188 24.6685 1.17188H10.5638C8.07383 1.17188 6.04883 3.19781 6.04883 5.68687V34.5225C6.04883 34.7034 6.19602 34.8506 6.37695 34.8506C6.55789 34.8506 6.70508 34.7034 6.70508 34.5225V5.68687C6.70508 3.55875 8.43664 1.82812 10.5638 1.82812H24.6685C26.7966 1.82812 28.5273 3.55969 28.5273 5.68687Z" fill="#9A9A9A"/>
<path d="M3.78798 20.8388C3.73923 20.8388 3.68954 20.8276 3.64267 20.8051L1.45454 19.7204C1.37816 19.6808 1.32036 19.6129 1.29361 19.5311C1.26686 19.4493 1.27329 19.3603 1.31152 19.2833C1.34975 19.2062 1.41671 19.1472 1.498 19.119C1.57928 19.0909 1.66838 19.0957 1.74611 19.1326L3.93329 20.2163C4.01123 20.255 4.07062 20.3231 4.0984 20.4055C4.12618 20.488 4.12007 20.5781 4.08142 20.656C4.05444 20.7109 4.01266 20.757 3.9608 20.7893C3.90894 20.8216 3.84908 20.8388 3.78798 20.8388ZM1.73204 29.3438C1.61111 29.3438 1.49392 29.2763 1.43673 29.1601C1.39851 29.082 1.39284 28.992 1.42096 28.9097C1.44909 28.8274 1.50871 28.7597 1.58673 28.7213L3.77954 27.647C3.85763 27.6088 3.94769 27.6031 4.02995 27.6312C4.11221 27.6593 4.17995 27.7189 4.21829 27.797C4.25652 27.8751 4.26219 27.9651 4.23406 28.0474C4.20594 28.1296 4.14632 28.1974 4.06829 28.2357L1.87642 29.3101C1.82954 29.3335 1.77986 29.3438 1.73204 29.3438ZM42.1852 14.3017C42.0717 14.3017 41.9611 14.2426 41.9002 14.1367C41.8787 14.0993 41.8647 14.0581 41.8592 14.0153C41.8536 13.9726 41.8565 13.9292 41.8678 13.8875C41.879 13.8459 41.8983 13.8069 41.9246 13.7728C41.9509 13.7386 41.9837 13.71 42.0211 13.6885L44.137 12.4717C44.2125 12.4291 44.3016 12.418 44.3852 12.4409C44.4687 12.4638 44.5398 12.5188 44.5829 12.5939C44.6261 12.669 44.6379 12.7581 44.6156 12.8418C44.5934 12.9255 44.539 12.997 44.4642 13.0407L42.3483 14.2576C42.2977 14.2876 42.2405 14.3017 42.1852 14.3017ZM35.9311 10.2863C35.8843 10.2865 35.8381 10.2766 35.7955 10.2573C35.7529 10.238 35.7149 10.2099 35.684 10.1747C35.6532 10.1395 35.6303 10.0982 35.6168 10.0534C35.6033 10.0086 35.5995 9.96145 35.6058 9.9151L35.9302 7.49541C35.9545 7.31541 36.1195 7.18885 36.2986 7.21416C36.4786 7.23854 36.6042 7.40354 36.5799 7.5826L36.2555 10.0023C36.2449 10.0808 36.2062 10.1529 36.1465 10.2051C36.0869 10.2573 36.0104 10.2862 35.9311 10.2863Z" fill="#0166FF"/>
<path d="M33.4369 32.8715C34.9588 32.8715 36.4249 32.5136 37.7408 31.8372L38.3335 32.4299C38.5574 32.6539 38.8507 32.7654 39.1448 32.7654C39.4389 32.7654 39.7321 32.6539 39.9561 32.4299L42.1759 30.2102L46.9654 34.9995C47.5069 35.541 47.5069 36.4224 46.9654 36.9648C46.7028 37.2274 46.3538 37.3713 45.9832 37.3713C45.6127 37.3713 45.2637 37.2265 45.001 36.9648L41.0696 33.0334C40.9464 32.9102 40.7476 32.9102 40.6244 33.0334C40.5011 33.1566 40.5011 33.3554 40.6244 33.4786L44.5549 37.4091C44.9363 37.7904 45.4436 38 45.9823 38C46.522 38 47.0284 37.7904 47.4097 37.4082C48.1968 36.6212 48.1968 35.3404 47.4097 34.5534L42.6013 29.7452C42.8865 29.3018 42.8352 28.7027 42.4475 28.3151L41.8494 27.717C42.5177 26.4074 42.8721 24.9486 42.8721 23.4358C42.8721 20.9156 41.8908 18.5465 40.1081 16.7639C38.3263 14.9822 35.9563 14 33.436 14C30.9158 14 28.5467 14.9813 26.764 16.7639C24.9822 18.5456 24 20.9156 24 23.4358C24 25.9559 24.9813 28.325 26.764 30.1076C28.5467 31.8894 30.9167 32.8715 33.4369 32.8715ZM42.0023 28.7603C42.0991 28.8574 42.1534 28.9889 42.1534 29.1259C42.1534 29.263 42.0991 29.3945 42.0023 29.4915L39.51 31.9838C39.4129 32.0806 39.2814 32.1349 39.1443 32.1349C39.0073 32.1349 38.8758 32.0806 38.7787 31.9838L38.3119 31.517C38.9577 31.1258 39.5612 30.6545 40.1081 30.1067C40.6612 29.5536 41.1379 28.9429 41.531 28.289L42.0023 28.7603ZM27.2101 17.2091C28.8732 15.5461 31.0849 14.6296 33.4369 14.6296C35.789 14.6296 38.0007 15.5452 39.6638 17.2091C41.3268 18.8721 42.2434 21.0838 42.2434 23.4358C42.2434 25.7877 41.3277 27.9994 39.6638 29.6624C38.0007 31.3254 35.789 32.2419 33.4369 32.2419C31.0849 32.2419 28.8732 31.3263 27.2101 29.6624C25.547 27.9994 24.6305 25.7877 24.6305 23.4358C24.6305 21.0838 25.547 18.873 27.2101 17.2091Z" fill="#9A9A9A"/>
<path d="M38.8032 18.1968C35.8741 15.2677 31.1259 15.2677 28.1968 18.1968C25.2677 21.1259 25.2677 25.8741 28.1968 28.8032C31.1259 31.7323 35.8741 31.7323 38.8032 28.8032C41.7323 25.8741 41.7323 21.125 38.8032 18.1968ZM38.215 19.2348C38.1855 19.2643 38.1504 19.2876 38.1118 19.3036C38.0732 19.3195 38.0319 19.3277 37.9901 19.3276C37.9082 19.3276 37.8271 19.2967 37.7643 19.2339C36.7837 18.2533 35.4853 17.6368 34.1087 17.4985C34.067 17.4943 34.0266 17.482 33.9898 17.4622C33.9529 17.4425 33.9203 17.4156 33.8938 17.3832C33.8673 17.3508 33.8475 17.3135 33.8355 17.2735C33.8235 17.2334 33.8194 17.1914 33.8237 17.1497C33.8278 17.1081 33.8401 17.0677 33.8599 17.0308C33.8797 16.994 33.9065 16.9614 33.9389 16.9349C33.9713 16.9084 34.0086 16.8886 34.0487 16.8766C34.0887 16.8645 34.1308 16.8605 34.1724 16.8647C35.6948 17.0186 37.1306 17.6997 38.215 18.7841C38.2447 18.8136 38.2682 18.8488 38.2842 18.8874C38.3003 18.9261 38.3086 18.9676 38.3086 19.0094C38.3086 19.0513 38.3003 19.0927 38.2842 19.1314C38.2682 19.1701 38.2447 19.2052 38.215 19.2348ZM39.3495 21.0039C39.3049 21.0257 39.2566 21.0357 39.2102 21.0357C39.0918 21.0357 38.9789 20.9702 38.9234 20.8564C38.8279 20.6605 38.7218 20.4699 38.6056 20.2855C38.5118 20.1371 38.5564 19.9395 38.7049 19.8457C38.8533 19.7519 39.0509 19.7965 39.1446 19.945C39.273 20.148 39.3914 20.3611 39.4961 20.5759C39.5735 20.7362 39.5079 20.9265 39.3495 21.0039Z" fill="#0166FF"/>
<path fill-rule="evenodd" clip-rule="evenodd" d="M14.6434 35.3504C14.2571 35.1038 13.9917 34.9352 13.7871 34.8426C13.5827 34.75 13.5119 34.7678 13.4755 34.7866C13.4412 34.8042 13.3878 34.8473 13.3504 35.062C13.3128 35.2782 13.3046 35.5866 13.2936 36.0381L13.288 36.2671L13.287 36.3088C13.2822 36.5187 13.2781 36.699 13.2015 36.8594C13.1245 37.0209 12.9869 37.1355 12.8286 37.2674L12.7972 37.2936L12.6247 37.4378C12.2843 37.7223 12.0534 37.9163 11.911 38.078C11.7717 38.2363 11.7675 38.3078 11.7763 38.3541C11.7858 38.4045 11.8215 38.4758 12.0155 38.5857C12.2114 38.6967 12.5025 38.811 12.9274 38.9767L13.1431 39.0608L13.1806 39.0754C13.3805 39.1531 13.5473 39.2179 13.6752 39.343C13.803 39.4679 13.8719 39.6333 13.9545 39.832L13.97 39.8692L14.0596 40.0835C14.2358 40.5055 14.3574 40.795 14.4732 40.9888C14.5881 41.1812 14.66 41.2145 14.7092 41.2226C14.754 41.2299 14.8242 41.2246 14.9783 41.0804C15.1355 40.9331 15.3224 40.6961 15.5965 40.3468L15.7354 40.1698L15.7608 40.1374C15.8877 39.9751 15.9982 39.8338 16.1571 39.752C16.3153 39.6706 16.4953 39.6616 16.7039 39.6512L16.7455 39.6491L16.9733 39.6374C17.4226 39.6143 17.729 39.5978 17.9429 39.5543C18.1548 39.5112 18.1962 39.4568 18.213 39.4216C18.2313 39.3833 18.2465 39.3105 18.1489 39.1077C18.0512 38.9045 17.8761 38.6425 17.6204 38.2613L17.4905 38.0678L17.4676 38.0337C17.3474 37.8552 17.2469 37.7058 17.2138 37.531C17.1805 37.3547 17.2209 37.181 17.2686 36.9765L17.2776 36.9375L17.3289 36.7159C17.4301 36.2791 17.4984 35.9808 17.5157 35.7612C17.5327 35.5459 17.4941 35.4777 17.4558 35.4403C17.4178 35.4032 17.3498 35.3663 17.1365 35.3891C16.9188 35.4123 16.6239 35.4888 16.1917 35.602L15.9726 35.6594L15.9337 35.6696C15.7317 35.7229 15.5592 35.7683 15.3822 35.7394C15.2067 35.7107 15.055 35.6136 14.8743 35.4979L14.8395 35.4757L14.6434 35.3504ZM13.236 34.3213C13.491 34.1901 13.7554 34.2539 14.0028 34.3659C14.246 34.4759 14.5432 34.6657 14.9066 34.8977L15.1211 35.0346C15.3557 35.1844 15.4113 35.214 15.4665 35.223C15.5199 35.2317 15.5775 35.222 15.84 35.1533L16.0808 35.0902C16.4859 34.984 16.8192 34.8967 17.081 34.8688C17.3519 34.8399 17.617 34.8661 17.8216 35.0661C18.0258 35.2658 18.0588 35.5303 18.0373 35.8024C18.0165 36.0658 17.9386 36.4025 17.8437 36.8123L17.7874 37.0555C17.726 37.3205 17.7177 37.3794 17.7279 37.4337C17.7385 37.4895 17.7698 37.545 17.925 37.7762L18.0669 37.9878C18.3077 38.3465 18.5044 38.6397 18.6204 38.8808C18.7384 39.1261 18.8085 39.3886 18.6852 39.6469C18.5606 39.9081 18.311 40.0134 18.0472 40.067C17.7901 40.1194 17.4438 40.1371 17.0227 40.1588L16.7724 40.1717C16.4983 40.1858 16.4415 40.1941 16.3966 40.2173C16.3525 40.2399 16.3143 40.2796 16.1471 40.4927L15.9941 40.6878C15.7377 41.0146 15.5261 41.2842 15.336 41.4623C15.1391 41.6467 14.9101 41.7855 14.6249 41.739C14.3441 41.6931 14.1646 41.4924 14.024 41.2572C13.8866 41.0271 13.751 40.7023 13.5851 40.305L13.4872 40.0708C13.3805 39.8153 13.3514 39.7582 13.3094 39.7171C13.2676 39.6761 13.2102 39.6486 12.953 39.5483L12.7373 39.4642L12.7171 39.4563C12.3174 39.3004 11.9903 39.1728 11.7575 39.041C11.519 38.9058 11.315 38.7309 11.2621 38.4515C11.2085 38.168 11.3397 37.9352 11.5182 37.7324C11.6904 37.5367 11.9531 37.3171 12.2716 37.051L12.4616 36.8922C12.6691 36.7187 12.7078 36.6792 12.7293 36.6341C12.7514 36.5878 12.7582 36.5297 12.7649 36.2544L12.771 36.0029C12.7813 35.5794 12.7898 35.2316 12.835 34.9722C12.8812 34.7068 12.9789 34.4537 13.236 34.3213ZM12.3732 40.2548C12.4754 40.1527 12.6411 40.1527 12.7432 40.2548C12.8454 40.357 12.8454 40.5226 12.7432 40.6248L12.0456 41.3225C11.9434 41.4246 11.7778 41.4246 11.6756 41.3225C11.5734 41.2203 11.5734 41.0546 11.6756 40.9525L12.3732 40.2548Z" fill="#9A9A9A"/>
<path fill-rule="evenodd" clip-rule="evenodd" d="M15.0044 7.70117C14.1182 7.70117 13.3997 8.41961 13.3997 9.30585C13.3997 10.1921 14.1182 10.9105 15.0044 10.9105C15.8907 10.9105 16.6091 10.1921 16.6091 9.30585C16.6091 8.41961 15.8907 7.70117 15.0044 7.70117ZM13.9065 9.30585C13.9065 8.69948 14.398 8.20791 15.0044 8.20791C15.6108 8.20791 16.1023 8.69948 16.1023 9.30585C16.1023 9.91223 15.6108 10.4038 15.0044 10.4038C14.398 10.4038 13.9065 9.91223 13.9065 9.30585Z" fill="#9A9A9A"/>
<path fill-rule="evenodd" clip-rule="evenodd" d="M15.0049 11.4188C14.2233 11.4188 13.5032 11.5965 12.9696 11.8966C12.444 12.1923 12.0489 12.6404 12.0489 13.1924L12.0489 13.2269C12.0485 13.6194 12.048 14.112 12.4801 14.4638C12.6927 14.637 12.9902 14.7601 13.3921 14.8415C13.7952 14.9231 14.3205 14.966 15.0049 14.966C15.6892 14.966 16.2145 14.9231 16.6176 14.8415C17.0195 14.7601 17.317 14.637 17.5296 14.4638C17.9617 14.112 17.9612 13.6194 17.9609 13.2269L17.9608 13.1924C17.9608 12.6404 17.5658 12.1923 17.0401 11.8966C16.5065 11.5965 15.7864 11.4188 15.0049 11.4188ZM12.5556 13.1924C12.5556 12.9048 12.7655 12.5928 13.218 12.3383C13.6626 12.0882 14.2938 11.9256 15.0049 11.9256C15.7159 11.9256 16.3471 12.0882 16.7917 12.3383C17.2442 12.5928 17.4541 12.9048 17.4541 13.1924C17.4541 13.6342 17.4405 13.8829 17.2096 14.0709C17.0845 14.1729 16.8752 14.2724 16.517 14.3448C16.16 14.4171 15.6718 14.4593 15.0049 14.4593C14.3379 14.4593 13.8497 14.4171 13.4927 14.3448C13.1345 14.2724 12.9252 14.1729 12.8001 14.0709C12.5692 13.8829 12.5556 13.6342 12.5556 13.1924Z" fill="#9A9A9A"/>
<path d="M14.3327 21.666L12.666 27.666M17.3327 21.666L15.666 27.666M18.3327 23.666H12.3327M17.666 25.9993H11.666" stroke="#9A9A9A" stroke-width="0.5" stroke-linecap="round" stroke-linejoin="round"/>
</svg>

<svg xmlns="http://www.w3.org/2000/svg" width="48" height="48" fill="none"><path fill="#E1EAF8" d="M21.06 4.832h-6.89c-.564 0-1.065-.361-1.245-.897L12.115 1.5h11.004l-.812 2.435a1.315 1.315 0 0 1-1.246.897m6.154 34.03v3.45a2.546 2.546 0 0 1-2.546 2.546H13.412c-.905 0-1.64.735-1.64 1.641h12.896a4.187 4.187 0 0 0 4.187-4.187v-2.8z"/><path fill="#9A9A9A" d="M24.669 46.828H10.564a4.52 4.52 0 0 1-4.515-4.515v-5.239a.328.328 0 0 1 .656 0v5.239a3.863 3.863 0 0 0 3.859 3.859h14.105a3.863 3.863 0 0 0 3.858-3.859v-5.8a.329.329 0 0 1 .656 0v5.8a4.52 4.52 0 0 1-4.514 4.515M28.527 5.687v5.127a.328.328 0 0 0 .656 0V5.687a4.52 4.52 0 0 0-4.514-4.515H10.564a4.52 4.52 0 0 0-4.515 4.515v28.836a.328.328 0 0 0 .656 0V5.687a3.863 3.863 0 0 1 3.859-3.859h14.105a3.863 3.863 0 0 1 3.858 3.859"/><path fill="#0166FF" d="M3.788 20.839a.34.34 0 0 1-.145-.034L1.455 19.72a.328.328 0 0 1 .291-.587l2.187 1.083a.328.328 0 0 1-.145.623m-2.056 8.505a.33.33 0 0 1-.311-.434.33.33 0 0 1 .166-.189l2.193-1.074a.328.328 0 0 1 .288.589L1.876 29.31a.3.3 0 0 1-.144.034m40.453-15.042a.328.328 0 0 1-.164-.614l2.116-1.216a.328.328 0 0 1 .327.569l-2.116 1.217a.3.3 0 0 1-.163.044m-6.254-4.016a.325.325 0 0 1-.314-.233.3.3 0 0 1-.011-.138l.324-2.42a.328.328 0 1 1 .65.087l-.325 2.42a.33.33 0 0 1-.324.284"/><path fill="#9A9A9A" d="M33.437 32.872a9.4 9.4 0 0 0 4.304-1.035l.593.593c.223.224.517.335.81.335.295 0 .588-.111.812-.335l2.22-2.22 4.79 4.79a1.39 1.39 0 0 1 0 1.965 1.38 1.38 0 0 1-.983.406c-.37 0-.72-.145-.982-.406l-3.931-3.932a.314.314 0 1 0-.446.446l3.93 3.93c.382.381.89.591 1.428.591a2.02 2.02 0 0 0 1.427-3.447l-4.808-4.808a1.15 1.15 0 0 0-.154-1.43l-.598-.598a9.4 9.4 0 0 0 1.023-4.281c0-2.52-.981-4.89-2.764-6.672A9.38 9.38 0 0 0 33.436 14c-2.52 0-4.89.981-6.672 2.764A9.38 9.38 0 0 0 24 23.436c0 2.52.981 4.889 2.764 6.672a9.38 9.38 0 0 0 6.673 2.763m8.565-4.112a.52.52 0 0 1 0 .731l-2.492 2.493a.52.52 0 0 1-.731 0l-.467-.467a9.5 9.5 0 0 0 1.796-1.41 9.5 9.5 0 0 0 1.423-1.818zM27.21 17.21a8.75 8.75 0 0 1 6.227-2.58c2.352 0 4.564.915 6.227 2.58a8.75 8.75 0 0 1 2.58 6.226 8.75 8.75 0 0 1-2.58 6.226 8.75 8.75 0 0 1-6.227 2.58 8.75 8.75 0 0 1-6.227-2.58 8.75 8.75 0 0 1-2.58-6.226 8.75 8.75 0 0 1 2.58-6.227"/><path fill="#0166FF" d="M38.803 18.197a7.5 7.5 0 0 0-10.606 0 7.5 7.5 0 0 0 0 10.606 7.5 7.5 0 0 0 10.606 0 7.5 7.5 0 0 0 0-10.606m-.588 1.038a.32.32 0 0 1-.45-.001 6.04 6.04 0 0 0-3.656-1.736.318.318 0 1 1 .063-.633 6.7 6.7 0 0 1 4.043 1.92.316.316 0 0 1 0 .45m1.134 1.769a.32.32 0 0 1-.426-.148 6 6 0 0 0-.317-.57.32.32 0 0 1 .539-.341c.128.203.246.416.351.63a.32.32 0 0 1-.147.429"/><path fill="#9A9A9A" fill-rule="evenodd" d="M14.643 35.35c-.386-.246-.651-.415-.856-.507s-.275-.075-.312-.056c-.034.017-.087.06-.125.275-.037.216-.045.525-.056.976l-.006.23-.001.04c-.005.21-.009.391-.086.551-.077.162-.214.276-.372.408l-.032.027-.172.144c-.34.284-.572.478-.714.64-.14.158-.143.23-.135.276.01.05.046.122.24.232.195.11.486.225.911.39l.216.085.038.014c.2.078.366.143.494.268s.197.29.28.489l.015.037.09.215c.176.421.297.711.413.905.115.192.187.226.236.234.045.007.115.002.27-.143.157-.147.343-.384.618-.733l.138-.177.026-.033c.127-.162.237-.303.396-.385.158-.081.338-.09.547-.1l.041-.003.228-.012c.45-.023.756-.04.97-.083.212-.043.253-.097.27-.132.018-.039.034-.111-.064-.314s-.273-.465-.529-.847l-.13-.193-.022-.034c-.12-.179-.221-.328-.254-.503-.034-.176.007-.35.055-.554l.009-.04.05-.221c.102-.437.17-.735.188-.955.017-.215-.022-.283-.06-.32s-.106-.075-.32-.052c-.217.023-.512.1-.944.213l-.22.057-.038.01c-.202.054-.375.1-.552.07-.175-.028-.327-.125-.508-.241l-.035-.022zm-1.407-1.029c.255-.13.52-.067.767.045.243.11.54.3.904.532l.214.137c.235.15.29.179.345.188s.112-.001.374-.07l.24-.063c.406-.106.74-.193 1.001-.221.27-.03.536-.003.74.197.205.2.238.464.216.736-.02.264-.098.6-.193 1.01l-.057.244c-.061.265-.07.323-.06.378.011.056.043.111.198.342l.142.212c.24.358.437.652.553.893.118.245.188.508.065.766-.124.261-.374.366-.638.42-.257.052-.603.07-1.024.092l-.25.013c-.275.014-.331.022-.376.045s-.083.063-.25.276l-.153.195c-.256.327-.468.596-.658.774-.197.185-.426.323-.711.277-.28-.046-.46-.247-.601-.482-.137-.23-.273-.555-.439-.952l-.098-.234c-.107-.256-.136-.313-.178-.354s-.099-.068-.356-.169l-.216-.084-.02-.008c-.4-.156-.727-.283-.96-.415-.238-.135-.442-.31-.495-.59-.053-.283.078-.516.256-.719.172-.195.435-.415.754-.681l.19-.159c.207-.173.246-.213.267-.258s.03-.104.036-.38l.006-.251c.01-.424.019-.771.064-1.03.046-.266.144-.52.401-.652m-.863 5.934a.262.262 0 0 1 .37.37l-.697.697a.262.262 0 0 1-.37-.37zM15.004 7.701a1.605 1.605 0 1 0 0 3.21 1.605 1.605 0 0 0 0-3.21m-1.098 1.605a1.098 1.098 0 1 1 2.196 0 1.098 1.098 0 0 1-2.196 0M15.005 11.419c-.782 0-1.502.178-2.035.478-.526.295-.921.743-.921 1.295v.035c0 .392-.001.885.431 1.237.213.173.51.296.912.377.403.082.928.125 1.613.125s1.21-.043 1.613-.124c.402-.082.699-.205.912-.378.432-.352.431-.845.43-1.237v-.035c0-.552-.394-1-.92-1.295-.534-.3-1.254-.478-2.035-.478m-2.45 1.773c0-.287.21-.6.663-.854.445-.25 1.076-.412 1.787-.412s1.342.162 1.787.412c.452.255.662.567.662.854 0 .442-.014.69-.244.879-.126.102-.335.201-.693.274-.357.072-.845.114-1.512.114s-1.155-.042-1.512-.114c-.359-.073-.568-.172-.693-.274-.23-.188-.244-.437-.244-.879" clip-rule="evenodd"/><path stroke="#9A9A9A" stroke-linecap="round" stroke-linejoin="round" stroke-width=".5" d="m14.333 21.666-1.667 6m4.667-6-1.667 6m2.667-4h-6m5.333 2.333h-6"/></svg>
